X:563
T:Gök-polska efter Olof Nordblad
T:(SvL Hälsingland 563)
R:Polska
O:Norrala, Hälsingland
S:Olof Nordblad
B:Svenska Låtar Hälsingland, nr 563
Z:Till abc Jonas Brunskog
N:Jämför med +.
M:3/4
L:1/8
K:G
G2 BG/B/ dB/d/|gg/a/ gf/e/ de/f/|gg/a/ gf/e/ de/f/|g2 Bc de|f/e/d/^c/ d2 D2:|
|:g2 d3 e|e>d d>c c>B|g2 d3 e|e>d d>c c>B|GA/B/ c/B/c/d/ ec|B/A/G/F/ G2 G,2:|

